X:1
T:Title
%%score { ( 1 3 ) | 2 }
L:1/8
M:3/4
K:C
V:1 treble nm="Grand Piano"
V:3 treble 
V:2 bass 
V:1
 z2[Q:1/4=100] [EG] | [EG]2 [EG][G,CE] [G,DF][CEG] | [CFA]2 [CAc] [CGB]2 [CFA] | %3
 [CEG]2 [CEG][B,EG] [B,FA][G,DF] |[M:5/8] [G,CE]-[G,CE]- [G,CE]3 |[M:1/8] [CEG] | %6
[M:3/4] [CEG]2 [CEG][G,CE] [G,DF][CEG] | [CFA]2 [CAc] [CGB]2 [CFA] | %8
 [D^Fd]2 [DFA][EAc] [DGB][CFA] |[M:5/8] [B,G]-[B,G]- [B,G]3 |[M:1/8] [B,FG] | %11
[M:3/4] [CEG]2 [CEA][G,CE] [CEG][EGc] | B6 | F2 GD FA | G6 | cB cd cA | [EG][CE] [FA] [EG]2 [Gc] | %17
 B2 BG AB |[M:5/8] c-[Ec-][Fc-] [Ec]2 |] %19
V:2
 z2 [C,C] | [C,C]2 [C,C]C, C,C, | F,2 F, F,2 F, | G,2 G,G,, G,,G,, |[M:5/8] C,-C,- C,3 | %5
[M:1/8] C, |[M:3/4] C,2 C,C, C,C, | F,2 F, F,2 F, | D,2 D,D, D,D, |[M:5/8] G,-G,- G,3 |[M:1/8] G, | %11
[M:3/4] C,2 C,C, C,C, | [G,DF][G,D] [G,D] [G,D]2 [G,B,D] | [G,B,D]2 [G,B,D][G,B,] [G,B,D][G,B,F] | %14
 [C,C][C,B,] [C,A,] [C,G,]2 [C,C] | [A,E][A,D] [A,E][F,A,F] [F,A,F][F,CF] | %16
 [C,C][C,G,] [C,C] [C,C]2 [E,C] | [G,DF]2 [G,DF][G,B,F] [G,CF][G,DF] | %18
[M:5/8][K:bass] [C,C][C,G,][C,A,] [C,G,]2 |] %19
V:3
 x3 | x6 | x6 | x6 |[M:5/8] x5 |[M:1/8] x |[M:3/4] x6 | x6 | x6 |[M:5/8] x5 |[M:1/8] x | %11
[M:3/4] x6 | z F F F2 F | x6 | EE F E2 [EG] | x6 | x6 | x6 |[M:5/8] E z z z2 |] %19

